common/resources/fonts/svg/settings.svg

<?xml version="1.0" encoding="UTF-8" standalone="no"?>
<svg width="1024px" height="1024px" viewBox="0 0 1024 1024" version="1.1" xmlns="http://www.w3.org/2000/svg" xmlns:xlink="http://www.w3.org/1999/xlink">
    <!-- Generator: Sketch 3.7.1 (28215) - http://www.bohemiancoding.com/sketch -->
    <title>settings</title>
    <desc>Created with Sketch.</desc>
    <defs></defs>
    <g id="Page-1" stroke="none" stroke-width="1" fill="none" fill-rule="evenodd">
        <g id="settings" fill="#000000">
            <path d="M857,512 C857,490.4375 854.125,468.875 851.25,447.3125 L972,339.5 L819.625,167 L731.9375,244.625 C701.75,218.75 665.8125,200.0625 627,185.6875 L627,52 L397,52 L397,187.125 C358.1875,200.0625 323.6875,220.1875 292.0625,246.0625 L204.375,168.4375 L52,339.5 L172.75,447.3125 C169.875,468.875 167,490.4375 167,512 C167,533.5625 169.875,555.125 172.75,576.6875 L52,684.5 L204.375,857 L292.0625,779.375 C322.25,805.25 358.1875,823.9375 397,838.3125 L397,972 L627,972 L627,836.875 C665.8125,823.9375 700.3125,803.8125 731.9375,777.9375 L819.625,855.5625 L972,684.5 L851.25,576.6875 C854.125,555.125 857,533.5625 857,512 L857,512 Z M512,684.5 C417.125,684.5 339.5,606.875 339.5,512 C339.5,417.125 417.125,339.5 512,339.5 C606.875,339.5 684.5,417.125 684.5,512 C684.5,606.875 606.875,684.5 512,684.5 L512,684.5 Z" id="Shape"></path>
        </g>
    </g>
</svg>

<svg width="1024" height="1024" viewBox="0 0 1024 1024">
    <path d="M857 512c0-21.563-2.875-43.125-5.75-64.688L972 339.5 819.625 167l-87.688 77.625C701.75 218.75 665.813 200.062 627 185.687V52H397v135.125c-38.813 12.938-73.313 33.063-104.938 58.938l-87.687-77.625L52 339.5l120.75 107.813C169.875 468.875 167 490.438 167 512c0 21.563 2.875 43.125 5.75 64.688L52 684.5 204.375 857l87.688-77.625C322.25 805.25 358.188 823.938 397 838.313V972h230V836.875c38.813-12.938 73.313-33.063 104.938-58.938l87.687 77.625L972 684.5 851.25 576.687C854.125 555.125 857 533.563 857 512zM512 684.5c-94.875 0-172.5-77.625-172.5-172.5S417.125 339.5 512 339.5 684.5 417.125 684.5 512 606.875 684.5 512 684.5z" fill-rule="evenodd"/>
</svg>
